img/error.svg

<svg fill="none" height="60" viewBox="0 0 60 60" width="60" xmlns="http://www.w3.org/2000/svg"><path d="m37.5541 18.3334-7.5542 7.5541-7.5541-7.5541-4.1125 4.1125 7.5541 7.5541-7.5541 7.5542 4.1125 4.1125 7.5541-7.5542 7.5542 7.5542 4.1125-4.1125-7.5542-7.5542 7.5542-7.5541zm-7.5542-17.500026c-16.1291 0-29.166648 13.037526-29.166648 29.166626 0 16.1292 13.037548 29.1667 29.166648 29.1667 16.1292 0 29.1667-13.0375 29.1667-29.1667 0-16.1291-13.0375-29.166626-29.1667-29.166626zm0 52.500026c-12.8625 0-23.33331-10.4709-23.33331-23.3334s10.47081-23.33329 23.33331-23.33329 23.3334 10.47079 23.3334 23.33329-10.4709 23.3334-23.3334 23.3334z" fill="#ff6363"/></svg>

<svg width="60" height="60" viewBox="0 0 60 60" fill="none" xmlns="http://www.w3.org/2000/svg">
<path d="M37.5541 18.3334L29.9999 25.8875L22.4458 18.3334L18.3333 22.4459L25.8874 30L18.3333 37.5542L22.4458 41.6667L29.9999 34.1125L37.5541 41.6667L41.6666 37.5542L34.1124 30L41.6666 22.4459L37.5541 18.3334ZM29.9999 0.833374C13.8708 0.833374 0.833252 13.8709 0.833252 30C0.833252 46.1292 13.8708 59.1667 29.9999 59.1667C46.1291 59.1667 59.1666 46.1292 59.1666 30C59.1666 13.8709 46.1291 0.833374 29.9999 0.833374ZM29.9999 53.3334C17.1374 53.3334 6.66659 42.8625 6.66659 30C6.66659 17.1375 17.1374 6.66671 29.9999 6.66671C42.8624 6.66671 53.3333 17.1375 53.3333 30C53.3333 42.8625 42.8624 53.3334 29.9999 53.3334Z" fill="#FF6363"/>
</svg>
